X: 17887
T: Horseshoe Bay
R: slip jig
M: 9/8
K: Gmajor
|:"C"c2G cde dcB|"D"A2D ABA "G"G2B|"C"cGG cde ged|1 "am"ecA "G"ABG "am"A2 B:|2 "am"ecA "G"ABG "am"A2 B||
|:"D"ADD ABc BAG|"D"A2D ABA "G"G2B|"D"ADD ABc Bcd|1 "am"edc "G"BcB "am"A2 B:|2 "am"edc "G"BcB "am"A2 B||

